src/Images/quran.svg

<?xml version="1.0" encoding="iso-8859-1"?>
<!-- Generator: Adobe Illustrator 19.0.0, SVG Export Plug-In . SVG Version: 6.00 Build 0)  -->
<svg version="1.1" id="Layer_1" xmlns="http://www.w3.org/2000/svg" xmlns:xlink="http://www.w3.org/1999/xlink" x="0px" y="0px"
	 viewBox="0 0 512 512" style="enable-background:new 0 0 512 512;" xml:space="preserve">
<path style="fill:#6B7A99;" d="M473.043,411.826V395.13V16.696C473.043,7.473,466.245,0,457.866,0H128v411.826h41.486
	C174.996,411.826,468.211,411.826,473.043,411.826z"/>
<path style="fill:#3AACE6;" d="M105.739,0C68.913,0,38.957,29.956,38.957,66.783v378.435c0,9.223,7.479,16.696,16.696,16.696
	s16.696-7.473,16.696-16.696c0-18.413,14.978-33.391,33.391-33.391h33.391V0H105.739z"/>
<g>
	<path style="fill:#5A6680;" d="M457.866,0H294.957v400.696h178.087v-384C473.043,7.473,466.245,0,457.866,0z"/>
	<path style="fill:#5A6680;" d="M456.348,512H105.739c-36.826,0-66.783-29.956-66.783-66.783s29.956-66.783,66.783-66.783h350.609
		c9.217,0,16.696,7.473,16.696,16.696v100.174C473.043,504.527,465.565,512,456.348,512z"/>
</g>
<path style="fill:#FFEFD9;" d="M105.739,411.826c-18.413,0-33.391,14.978-33.391,33.391s14.978,33.391,33.391,33.391h367.304
	v-66.783H105.739z"/>
<rect x="294.957" y="411.826" style="fill:#FFD9B3;" width="178.087" height="66.783"/>
<path style="fill:#FFC033;" d="M300.522,337.902c-64.445,0-116.87-52.429-116.87-116.87c0-42.337,23.348-81.461,60.946-102.103
	c12.403-6.829,27.331,4.065,24.37,18.093c-1.218,5.75-1.837,11.549-1.837,17.229c0,46.032,37.446,83.478,83.478,83.478
	c13.587,0,27-3.582,39.848-10.642c12.487-6.883,27.32,4.145,24.38,18.06C403.554,298.891,355.478,337.902,300.522,337.902z"/>
<g>
	<path style="fill:#F9A926;" d="M294.957,337.621c1.858,0.088,3.688,0.282,5.565,0.282c54.957,0,103.032-39.011,114.315-92.755
		c2.941-13.915-11.894-24.943-24.38-18.06c-12.848,7.06-26.261,10.642-39.848,10.642c-21.392,0-40.865-8.155-55.652-21.432
		L294.957,337.621L294.957,337.621z"/>
	<path style="fill:#F9A926;" d="M415.549,103.634c-1.965-6.044-7.188-10.449-13.477-11.362l-13.457-1.956l-6.017-12.193
		c-2.813-5.699-8.616-9.306-14.972-9.306s-12.159,3.607-14.972,9.306l-6.017,12.193l-13.456,1.956
		c-6.289,0.913-11.514,5.318-13.477,11.363c-1.965,6.044-0.326,12.679,4.225,17.114l9.736,9.491l-2.297,13.401
		c-1.074,6.264,1.501,12.593,6.643,16.329c5.132,3.728,11.95,4.233,17.583,1.27l12.034-6.327l12.035,6.328
		c5.626,2.956,12.442,2.464,17.583-1.271s7.717-10.066,6.643-16.329l-2.297-13.401l9.736-9.491
		C415.875,116.314,417.513,109.679,415.549,103.634z"/>
</g>
<g>
</g>
<g>
</g>
<g>
</g>
<g>
</g>
<g>
</g>
<g>
</g>
<g>
</g>
<g>
</g>
<g>
</g>
<g>
</g>
<g>
</g>
<g>
</g>
<g>
</g>
<g>
</g>
<g>
</g>
</svg>

<svg width="512" height="512" viewBox="0 0 512 512" fill="none" xmlns="http://www.w3.org/2000/svg">
<path d="M473.043 411.826V395.13V16.696C473.043 7.473 466.245 0 457.866 0H128V411.826H169.486C174.996 411.826 468.211 411.826 473.043 411.826Z" fill="#389BDF"/>
<path d="M105.739 0C68.913 0 38.957 29.956 38.957 66.783V445.218C38.957 454.441 46.436 461.914 55.653 461.914C64.87 461.914 72.349 454.441 72.349 445.218C72.349 426.805 87.327 411.827 105.74 411.827H139.131V0H105.739Z" fill="#3AACE6"/>
<path d="M457.866 0H294.957V400.696H473.044V16.696C473.043 7.473 466.245 0 457.866 0Z" fill="#5A6680"/>
<path d="M456.348 512H105.739C68.9131 512 38.9561 482.044 38.9561 445.217C38.9561 408.39 68.9121 378.434 105.739 378.434H456.348C465.565 378.434 473.044 385.907 473.044 395.13V495.304C473.043 504.527 465.565 512 456.348 512Z" fill="#5A6680"/>
<path d="M105.739 411.826C87.3261 411.826 72.3481 426.804 72.3481 445.217C72.3481 463.63 87.3261 478.608 105.739 478.608H473.043V411.825H105.739V411.826Z" fill="white"/>
<path d="M300.522 337.902C236.077 337.902 183.652 285.473 183.652 221.032C183.652 178.695 207 139.571 244.598 118.929C257.001 112.1 271.929 122.994 268.968 137.022C267.75 142.772 267.131 148.571 267.131 154.251C267.131 200.283 304.577 237.729 350.609 237.729C364.196 237.729 377.609 234.147 390.457 227.087C402.944 220.204 417.777 231.232 414.837 245.147C403.554 298.891 355.478 337.902 300.522 337.902Z" fill="white"/>
<path d="M294.957 337.621C296.815 337.709 298.645 337.903 300.522 337.903C355.479 337.903 403.554 298.892 414.837 245.148C417.778 231.233 402.943 220.205 390.457 227.088C377.609 234.148 364.196 237.73 350.609 237.73C329.217 237.73 309.744 229.575 294.957 216.298V337.621Z" fill="white"/>
<path d="M415.549 103.634C413.584 97.59 408.361 93.185 402.072 92.272L388.615 90.316L382.598 78.123C379.785 72.424 373.982 68.817 367.626 68.817C361.27 68.817 355.467 72.424 352.654 78.123L346.637 90.316L333.181 92.272C326.892 93.185 321.667 97.59 319.704 103.635C317.739 109.679 319.378 116.314 323.929 120.749L333.665 130.24L331.368 143.641C330.294 149.905 332.869 156.234 338.011 159.97C343.143 163.698 349.961 164.203 355.594 161.24L367.628 154.913L379.663 161.241C385.289 164.197 392.105 163.705 397.246 159.97C402.387 156.235 404.963 149.904 403.889 143.641L401.592 130.24L411.328 120.749C415.875 116.314 417.513 109.679 415.549 103.634Z" fill="#389BDF"/>
</svg>
